images/3941250.svg

<?xml version="1.0" encoding="UTF-8"?>
<svg xmlns="http://www.w3.org/2000/svg" xmlns:xlink="http://www.w3.org/1999/xlink" width="300pt" height="300pt" viewBox="0 0 300 300" version="1.1">
<defs>
<g>
<symbol overflow="visible" id="glyph0-0">
<path style="stroke:none;" d="M 0.453125 1.59375 L 0.453125 -6.34375 L 4.953125 -6.34375 L 4.953125 1.59375 Z M 0.953125 1.09375 L 4.453125 1.09375 L 4.453125 -5.84375 L 0.953125 -5.84375 Z M 0.953125 1.09375 "/>
</symbol>
<symbol overflow="visible" id="glyph0-1">
<path style="stroke:none;" d="M 0.890625 -6.5625 L 2.078125 -6.5625 L 4.984375 -1.078125 L 4.984375 -6.5625 L 5.84375 -6.5625 L 5.84375 0 L 4.65625 0 L 1.75 -5.484375 L 1.75 0 L 0.890625 0 Z M 0.890625 -6.5625 "/>
</symbol>
<symbol overflow="visible" id="glyph0-2">
<path style="stroke:none;" d="M 3.546875 -5.953125 C 2.898438 -5.953125 2.382812 -5.710938 2 -5.234375 C 1.625 -4.753906 1.4375 -4.101562 1.4375 -3.28125 C 1.4375 -2.445312 1.625 -1.789062 2 -1.3125 C 2.382812 -0.832031 2.898438 -0.59375 3.546875 -0.59375 C 4.191406 -0.59375 4.703125 -0.832031 5.078125 -1.3125 C 5.453125 -1.789062 5.640625 -2.445312 5.640625 -3.28125 C 5.640625 -4.101562 5.453125 -4.753906 5.078125 -5.234375 C 4.703125 -5.710938 4.191406 -5.953125 3.546875 -5.953125 Z M 3.546875 -6.6875 C 4.460938 -6.6875 5.195312 -6.375 5.75 -5.75 C 6.300781 -5.132812 6.578125 -4.3125 6.578125 -3.28125 C 6.578125 -2.238281 6.300781 -1.410156 5.75 -0.796875 C 5.195312 -0.179688 4.460938 0.125 3.546875 0.125 C 2.617188 0.125 1.878906 -0.179688 1.328125 -0.796875 C 0.773438 -1.410156 0.5 -2.238281 0.5 -3.28125 C 0.5 -4.3125 0.773438 -5.132812 1.328125 -5.75 C 1.878906 -6.375 2.617188 -6.6875 3.546875 -6.6875 Z M 3.546875 -6.6875 "/>
</symbol>
<symbol overflow="visible" id="glyph1-0">
<path style="stroke:none;" d="M 0.40625 1.421875 L 0.40625 -5.640625 L 4.40625 -5.640625 L 4.40625 1.421875 Z M 0.84375 0.96875 L 3.953125 0.96875 L 3.953125 -5.1875 L 0.84375 -5.1875 Z M 0.84375 0.96875 "/>
</symbol>
<symbol overflow="visible" id="glyph1-1">
<path style="stroke:none;" d="M 3.6875 -5.015625 L 3.6875 -2.84375 L 5.859375 -2.84375 L 5.859375 -2.171875 L 3.6875 -2.171875 L 3.6875 0 L 3.03125 0 L 3.03125 -2.171875 L 0.84375 -2.171875 L 0.84375 -2.84375 L 3.03125 -2.84375 L 3.03125 -5.015625 Z M 3.6875 -5.015625 "/>
</symbol>
<symbol overflow="visible" id="glyph1-2">
<path style="stroke:none;" d="M 0.390625 -2.515625 L 2.5 -2.515625 L 2.5 -1.875 L 0.390625 -1.875 Z M 0.390625 -2.515625 "/>
</symbol>
</g>
</defs>
<g id="surface41817">
<rect x="0" y="0" width="300" height="300" style="fill:rgb(100%,100%,100%);fill-opacity:1;stroke:none;"/>
<path style="fill:none;stroke-width:1.2;stroke-linecap:butt;stroke-linejoin:miter;stroke:rgb(0%,0%,0%);stroke-opacity:1;stroke-miterlimit:10;" d="M 35.25 172.316406 L 52.578125 154.53125 "/>
<path style="fill:none;stroke-width:1.2;stroke-linecap:butt;stroke-linejoin:miter;stroke:rgb(0%,0%,0%);stroke-opacity:1;stroke-miterlimit:10;" d="M 52.578125 154.53125 L 64.609375 157.585938 "/>
<path style="fill:none;stroke-width:1.2;stroke-linecap:butt;stroke-linejoin:miter;stroke:rgb(0%,0%,100%);stroke-opacity:1;stroke-miterlimit:10;" d="M 64.609375 157.585938 L 76.644531 160.640625 "/>
<path style="fill:none;stroke-width:1.2;stroke-linecap:butt;stroke-linejoin:miter;stroke:rgb(0%,0%,100%);stroke-opacity:1;stroke-miterlimit:10;" d="M 76.644531 160.640625 L 80.015625 172.59375 "/>
<path style="fill:none;stroke-width:1.2;stroke-linecap:butt;stroke-linejoin:miter;stroke:rgb(0%,0%,0%);stroke-opacity:1;stroke-miterlimit:10;" d="M 80.015625 172.59375 L 83.386719 184.542969 "/>
<path style="fill:none;stroke-width:1.2;stroke-linecap:butt;stroke-linejoin:miter;stroke:rgb(0%,0%,100%);stroke-opacity:1;stroke-miterlimit:10;" d="M 76.644531 160.640625 L 85.308594 151.75 "/>
<path style="fill:none;stroke-width:1.2;stroke-linecap:butt;stroke-linejoin:miter;stroke:rgb(0%,0%,0%);stroke-opacity:1;stroke-miterlimit:10;" d="M 85.308594 151.75 L 93.972656 142.855469 "/>
<path style=" stroke:none;fill-rule:nonzero;fill:rgb(100%,100%,100%);fill-opacity:1;" d="M 73.644531 155.140625 L 80.644531 155.140625 L 80.644531 166.140625 L 73.644531 166.140625 Z M 73.644531 155.140625 "/>
<g style="fill:rgb(0%,0%,100%);fill-opacity:1;">
  <use xlink:href="#glyph0-1" x="73.644531" y="163.803711"/>
</g>
<path style="fill:none;stroke-width:1.2;stroke-linecap:butt;stroke-linejoin:miter;stroke:rgb(0%,0%,0%);stroke-opacity:1;stroke-miterlimit:10;" d="M 83.386719 184.542969 L 66.058594 202.328125 "/>
<path style="fill:none;stroke-width:1.2;stroke-linecap:butt;stroke-linejoin:miter;stroke:rgb(0%,0%,0%);stroke-opacity:1;stroke-miterlimit:10;" d="M 93.972656 142.855469 L 118.039062 148.964844 "/>
<path style="fill:none;stroke-width:1.2;stroke-linecap:butt;stroke-linejoin:miter;stroke:rgb(0%,0%,0%);stroke-opacity:1;stroke-miterlimit:10;" d="M 118.039062 148.964844 L 126.703125 140.074219 "/>
<path style="fill:none;stroke-width:1.2;stroke-linecap:butt;stroke-linejoin:miter;stroke:rgb(100%,0%,0%);stroke-opacity:1;stroke-miterlimit:10;" d="M 126.703125 140.074219 L 135.367188 131.179688 "/>
<path style="fill:none;stroke-width:1.2;stroke-linecap:butt;stroke-linejoin:miter;stroke:rgb(100%,0%,0%);stroke-opacity:1;stroke-miterlimit:10;" d="M 135.367188 131.179688 L 147.402344 134.234375 "/>
<path style="fill:none;stroke-width:1.2;stroke-linecap:butt;stroke-linejoin:miter;stroke:rgb(0%,0%,0%);stroke-opacity:1;stroke-miterlimit:10;" d="M 147.402344 134.234375 L 159.433594 137.292969 "/>
<path style=" stroke:none;fill-rule:nonzero;fill:rgb(100%,100%,100%);fill-opacity:1;" d="M 131.367188 125.679688 L 139.367188 125.679688 L 139.367188 136.679688 L 131.367188 136.679688 Z M 131.367188 125.679688 "/>
<g style="fill:rgb(100%,0%,0%);fill-opacity:1;">
  <use xlink:href="#glyph0-2" x="131.367188" y="134.342773"/>
</g>
<path style="fill:none;stroke-width:1.2;stroke-linecap:butt;stroke-linejoin:miter;stroke:rgb(0%,0%,0%);stroke-opacity:1;stroke-miterlimit:10;" d="M 156.621094 138.085938 L 159.992188 150.035156 "/>
<path style="fill:none;stroke-width:1.2;stroke-linecap:butt;stroke-linejoin:miter;stroke:rgb(100%,0%,0%);stroke-opacity:1;stroke-miterlimit:10;" d="M 159.992188 150.035156 L 163.363281 161.984375 "/>
<path style="fill:none;stroke-width:1.2;stroke-linecap:butt;stroke-linejoin:miter;stroke:rgb(0%,0%,0%);stroke-opacity:1;stroke-miterlimit:10;" d="M 162.246094 136.5 L 165.617188 148.449219 "/>
<path style="fill:none;stroke-width:1.2;stroke-linecap:butt;stroke-linejoin:miter;stroke:rgb(100%,0%,0%);stroke-opacity:1;stroke-miterlimit:10;" d="M 165.617188 148.449219 L 168.988281 160.398438 "/>
<path style="fill:none;stroke-width:1.2;stroke-linecap:butt;stroke-linejoin:miter;stroke:rgb(0%,0%,0%);stroke-opacity:1;stroke-miterlimit:10;" d="M 159.433594 137.292969 L 176.761719 119.503906 "/>
<path style=" stroke:none;fill-rule:nonzero;fill:rgb(100%,100%,100%);fill-opacity:1;" d="M 162.175781 155.691406 L 170.175781 155.691406 L 170.175781 166.691406 L 162.175781 166.691406 Z M 162.175781 155.691406 "/>
<g style="fill:rgb(100%,0%,0%);fill-opacity:1;">
  <use xlink:href="#glyph0-2" x="162.175781" y="164.354492"/>
</g>
<path style="fill:none;stroke-width:1.2;stroke-linecap:butt;stroke-linejoin:miter;stroke:rgb(0%,0%,0%);stroke-opacity:1;stroke-miterlimit:10;" d="M 176.761719 119.503906 L 157.261719 104.132812 "/>
<path style="fill:none;stroke-width:1.2;stroke-linecap:butt;stroke-linejoin:miter;stroke:rgb(0%,0%,0%);stroke-opacity:1;stroke-miterlimit:10;" d="M 176.761719 119.503906 L 192.640625 138.59375 "/>
<path style="fill:none;stroke-width:1.2;stroke-linecap:butt;stroke-linejoin:miter;stroke:rgb(0%,0%,0%);stroke-opacity:1;stroke-miterlimit:10;" d="M 197.40625 105.707031 L 176.761719 119.503906 "/>
<path style="fill:none;stroke-width:1.2;stroke-linecap:butt;stroke-linejoin:miter;stroke:rgb(0%,0%,0%);stroke-opacity:1;stroke-miterlimit:10;" d="M 157.261719 104.132812 L 165.855469 80.832031 "/>
<path style="fill:none;stroke-width:1.2;stroke-linecap:butt;stroke-linejoin:miter;stroke:rgb(0%,0%,0%);stroke-opacity:1;stroke-miterlimit:10;" d="M 165.855469 80.832031 L 190.667969 81.808594 "/>
<path style="fill:none;stroke-width:1.2;stroke-linecap:butt;stroke-linejoin:miter;stroke:rgb(0%,0%,0%);stroke-opacity:1;stroke-miterlimit:10;" d="M 190.667969 81.808594 L 197.40625 105.707031 "/>
<path style="fill:none;stroke-width:1.2;stroke-linecap:butt;stroke-linejoin:miter;stroke:rgb(0%,0%,0%);stroke-opacity:1;stroke-miterlimit:10;" d="M 192.640625 138.59375 L 184.046875 161.890625 "/>
<path style="fill:none;stroke-width:1.2;stroke-linecap:butt;stroke-linejoin:miter;stroke:rgb(0%,0%,0%);stroke-opacity:1;stroke-miterlimit:10;" d="M 197.261719 142.945312 L 190.386719 161.585938 "/>
<path style="fill:none;stroke-width:1.2;stroke-linecap:butt;stroke-linejoin:miter;stroke:rgb(0%,0%,0%);stroke-opacity:1;stroke-miterlimit:10;" d="M 217.113281 134.390625 L 192.640625 138.59375 "/>
<path style="fill:none;stroke-width:1.2;stroke-linecap:butt;stroke-linejoin:miter;stroke:rgb(0%,0%,0%);stroke-opacity:1;stroke-miterlimit:10;" d="M 184.046875 161.890625 L 199.925781 180.984375 "/>
<path style="fill:none;stroke-width:1.2;stroke-linecap:butt;stroke-linejoin:miter;stroke:rgb(0%,0%,0%);stroke-opacity:1;stroke-miterlimit:10;" d="M 199.925781 180.984375 L 224.398438 176.777344 "/>
<path style="fill:none;stroke-width:1.2;stroke-linecap:butt;stroke-linejoin:miter;stroke:rgb(0%,0%,0%);stroke-opacity:1;stroke-miterlimit:10;" d="M 201.382812 174.804688 L 220.960938 171.441406 "/>
<path style="fill:none;stroke-width:1.2;stroke-linecap:butt;stroke-linejoin:miter;stroke:rgb(0%,0%,0%);stroke-opacity:1;stroke-miterlimit:10;" d="M 224.398438 176.777344 L 232.992188 153.480469 "/>
<path style="fill:none;stroke-width:1.2;stroke-linecap:butt;stroke-linejoin:miter;stroke:rgb(0%,0%,0%);stroke-opacity:1;stroke-miterlimit:10;" d="M 224.398438 176.777344 L 232.335938 186.324219 "/>
<path style="fill:none;stroke-width:1.2;stroke-linecap:butt;stroke-linejoin:miter;stroke:rgb(0%,0%,100%);stroke-opacity:1;stroke-miterlimit:10;" d="M 232.335938 186.324219 L 240.277344 195.867188 "/>
<path style="fill:none;stroke-width:1.2;stroke-linecap:butt;stroke-linejoin:miter;stroke:rgb(0%,0%,0%);stroke-opacity:1;stroke-miterlimit:10;" d="M 232.992188 153.480469 L 217.113281 134.390625 "/>
<path style="fill:none;stroke-width:1.2;stroke-linecap:butt;stroke-linejoin:miter;stroke:rgb(0%,0%,0%);stroke-opacity:1;stroke-miterlimit:10;" d="M 226.914062 155.308594 L 214.210938 140.035156 "/>
<path style="fill:none;stroke-width:1.2;stroke-linecap:butt;stroke-linejoin:miter;stroke:rgb(0%,0%,100%);stroke-opacity:1;stroke-miterlimit:10;" d="M 240.773438 198.75 L 253.007812 196.644531 "/>
<path style="fill:none;stroke-width:1.2;stroke-linecap:butt;stroke-linejoin:miter;stroke:rgb(100%,0%,0%);stroke-opacity:1;stroke-miterlimit:10;" d="M 253.007812 196.644531 L 265.246094 194.542969 "/>
<path style="fill:none;stroke-width:1.2;stroke-linecap:butt;stroke-linejoin:miter;stroke:rgb(0%,0%,100%);stroke-opacity:1;stroke-miterlimit:10;" d="M 239.78125 192.988281 L 252.019531 190.886719 "/>
<path style="fill:none;stroke-width:1.2;stroke-linecap:butt;stroke-linejoin:miter;stroke:rgb(100%,0%,0%);stroke-opacity:1;stroke-miterlimit:10;" d="M 252.019531 190.886719 L 264.253906 188.785156 "/>
<path style="fill:none;stroke-width:1.2;stroke-linecap:butt;stroke-linejoin:miter;stroke:rgb(0%,0%,100%);stroke-opacity:1;stroke-miterlimit:10;" d="M 240.277344 195.867188 L 235.980469 207.519531 "/>
<path style="fill:none;stroke-width:1.2;stroke-linecap:butt;stroke-linejoin:miter;stroke:rgb(100%,0%,0%);stroke-opacity:1;stroke-miterlimit:10;" d="M 235.980469 207.519531 L 231.683594 219.167969 "/>
<path style=" stroke:none;fill-rule:nonzero;fill:rgb(100%,100%,100%);fill-opacity:1;" d="M 233.277344 188.367188 L 247.277344 188.367188 L 247.277344 203.367188 L 233.277344 203.367188 Z M 233.277344 188.367188 "/>
<g style="fill:rgb(0%,0%,100%);fill-opacity:1;">
  <use xlink:href="#glyph0-1" x="233.277344" y="200.46875"/>
</g>
<g style="fill:rgb(0%,0%,100%);fill-opacity:1;">
  <use xlink:href="#glyph1-1" x="240.254883" y="195.585938"/>
</g>
<path style=" stroke:none;fill-rule:nonzero;fill:rgb(100%,100%,100%);fill-opacity:1;" d="M 260.75 186.164062 L 268.75 186.164062 L 268.75 197.164062 L 260.75 197.164062 Z M 260.75 186.164062 "/>
<g style="fill:rgb(100%,0%,0%);fill-opacity:1;">
  <use xlink:href="#glyph0-2" x="260.75" y="194.827148"/>
</g>
<path style=" stroke:none;fill-rule:nonzero;fill:rgb(100%,100%,100%);fill-opacity:1;" d="M 220.683594 211.667969 L 231.683594 211.667969 L 231.683594 226.667969 L 220.683594 226.667969 Z M 220.683594 211.667969 "/>
<g style="fill:rgb(100%,0%,0%);fill-opacity:1;">
  <use xlink:href="#glyph1-2" x="220.683594" y="218.886719"/>
</g>
<g style="fill:rgb(100%,0%,0%);fill-opacity:1;">
  <use xlink:href="#glyph0-2" x="223.491211" y="223.769531"/>
</g>
</g>
</svg>

<svg xmlns="http://www.w3.org/2000/svg" xmlns:xlink="http://www.w3.org/1999/xlink" width="300pt" height="300pt" viewBox="0 0 300 300"><defs><symbol overflow="visible"><path d="M.453 1.594v-7.938h4.5v7.938zm.5-.5h3.5v-6.938h-3.5zm0 0"/></symbol><symbol overflow="visible" id="a"><path d="M.89-6.563H2.08l2.906 5.485v-5.484h.86V0H4.656L1.75-5.484V0H.89zm0 0"/></symbol><symbol overflow="visible" id="b"><path d="M3.547-5.953c-.65 0-1.164.242-1.547.72-.375.48-.563 1.13-.563 1.952 0 .835.188 1.49.563 1.967.383.48.898.72 1.547.72.644 0 1.156-.24 1.53-.72.376-.476.564-1.132.564-1.968 0-.822-.187-1.474-.562-1.954-.375-.477-.887-.72-1.53-.72zm0-.734c.914 0 1.648.312 2.203.937.55.617.828 1.438.828 2.47 0 1.042-.277 1.87-.828 2.483-.555.617-1.29.922-2.203.922-.93 0-1.668-.305-2.22-.922C.774-1.41.5-2.237.5-3.28c0-1.033.273-1.853.828-2.47.55-.625 1.29-.938 2.22-.938zm0 0"/></symbol><symbol overflow="visible"><path d="M.406 1.422V-5.64h4V1.42zM.844.97h3.11v-6.157H.843zm0 0"/></symbol><symbol overflow="visible" id="c"><path d="M3.688-5.016v2.172h2.17v.672H3.69V0H3.03v-2.172H.845v-.672H3.03v-2.172zm0 0"/></symbol><symbol overflow="visible" id="d"><path d="M.39-2.516H2.5v.64H.39zm0 0"/></symbol></defs><g><path fill="#fff" d="M0 0h300v300H0z"/><path d="M35.25 172.316l17.328-17.785M52.578 154.53l12.03 3.056" stroke-width="1.2" stroke="#000" stroke-miterlimit="10" fill="none"/><path d="M64.61 157.586l12.035 3.055M76.645 160.64l3.37 11.954" stroke-width="1.2" stroke="#00f" stroke-miterlimit="10" fill="none"/><path d="M80.016 172.594l3.37 11.95" stroke-width="1.2" stroke="#000" stroke-miterlimit="10" fill="none"/><path d="M76.645 160.64l8.664-8.89" stroke-width="1.2" stroke="#00f" stroke-miterlimit="10" fill="none"/><path d="M85.31 151.75l8.663-8.895" stroke-width="1.2" stroke="#000" stroke-miterlimit="10" fill="none"/><path d="M73.645 155.14h7v11h-7zm0 0" fill="#fff"/><use xlink:href="#a" x="73.645" y="163.804" fill="#00f"/><path d="M83.387 184.543L66.06 202.328M93.973 142.855l24.066 6.11M118.04 148.965l8.663-8.89" stroke-width="1.2" stroke="#000" stroke-miterlimit="10" fill="none"/><path d="M126.703 140.074l8.664-8.894M135.367 131.18l12.035 3.054" stroke-width="1.2" stroke="#f00" stroke-miterlimit="10" fill="none"/><path d="M147.402 134.234l12.032 3.06" stroke-width="1.2" stroke="#000" stroke-miterlimit="10" fill="none"/><path d="M131.367 125.68h8v11h-8zm0 0" fill="#fff"/><use xlink:href="#b" x="131.367" y="134.343" fill="#f00"/><path d="M156.62 138.086l3.372 11.95" stroke-width="1.2" stroke="#000" stroke-miterlimit="10" fill="none"/><path d="M159.992 150.035l3.37 11.95" stroke-width="1.2" stroke="#f00" stroke-miterlimit="10" fill="none"/><path d="M162.246 136.5l3.37 11.95" stroke-width="1.2" stroke="#000" stroke-miterlimit="10" fill="none"/><path d="M165.617 148.45l3.37 11.948" stroke-width="1.2" stroke="#f00" stroke-miterlimit="10" fill="none"/><path d="M159.434 137.293l17.328-17.79" stroke-width="1.2" stroke="#000" stroke-miterlimit="10" fill="none"/><path d="M162.176 155.69h8v11h-8zm0 0" fill="#fff"/><use xlink:href="#b" x="162.176" y="164.354" fill="#f00"/><path d="M176.762 119.504l-19.5-15.37M176.762 119.504l15.88 19.09M197.406 105.707l-20.644 13.797M157.262 104.133l8.593-23.3M165.855 80.832l24.813.977M190.668 81.81l6.738 23.897M192.64 138.594l-8.593 23.297M197.262 142.945l-6.875 18.64M217.113 134.39l-24.472 4.204M184.047 161.89l15.88 19.094M199.926 180.984l24.472-4.207M201.383 174.805l19.578-3.364M224.398 176.777l8.594-23.297M224.398 176.777l7.938 9.547" stroke-width="1.2" stroke="#000" stroke-miterlimit="10" fill="none"/><path d="M232.336 186.324l7.94 9.543" stroke-width="1.2" stroke="#00f" stroke-miterlimit="10" fill="none"/><path d="M232.992 153.48l-15.88-19.09M226.914 155.31l-12.703-15.275" stroke-width="1.2" stroke="#000" stroke-miterlimit="10" fill="none"/><path d="M240.773 198.75l12.235-2.105" stroke-width="1.2" stroke="#00f" stroke-miterlimit="10" fill="none"/><path d="M253.008 196.645l12.238-2.102" stroke-width="1.2" stroke="#f00" stroke-miterlimit="10" fill="none"/><path d="M239.78 192.988l12.24-2.1" stroke-width="1.2" stroke="#00f" stroke-miterlimit="10" fill="none"/><path d="M252.02 190.887l12.234-2.102" stroke-width="1.2" stroke="#f00" stroke-miterlimit="10" fill="none"/><path d="M240.277 195.867l-4.297 11.653" stroke-width="1.2" stroke="#00f" stroke-miterlimit="10" fill="none"/><path d="M235.98 207.52l-4.296 11.648" stroke-width="1.2" stroke="#f00" stroke-miterlimit="10" fill="none"/><path d="M233.277 188.367h14v15h-14zm0 0" fill="#fff"/><use xlink:href="#a" x="233.277" y="200.469" fill="#00f"/><use xlink:href="#c" x="240.255" y="195.586" fill="#00f"/><path d="M260.75 186.164h8v11h-8zm0 0" fill="#fff"/><use xlink:href="#b" x="260.75" y="194.827" fill="#f00"/><path d="M220.684 211.668h11v15h-11zm0 0" fill="#fff"/><use xlink:href="#d" x="220.684" y="218.887" fill="#f00"/><use xlink:href="#b" x="223.491" y="223.77" fill="#f00"/></g></svg>
